SVG/file-powerpoint-o.svg

<?xml version="1.0" encoding="utf-8"?>
<!-- Generated by IcoMoon.io -->
<!DOCTYPE svg PUBLIC "-//W3C//DTD SVG 1.1//EN" "http://www.w3.org/Graphics/SVG/1.1/DTD/svg11.dtd">
<svg version="1.1" xmlns="http://www.w3.org/2000/svg" xmlns:xlink="http://www.w3.org/1999/xlink" width="12" height="14" viewBox="0 0 12 14">
<path fill="#444444" d="M11.469 2.969q0.219 0.219 0.375 0.594t0.156 0.688v9q0 0.312-0.219 0.531t-0.531 0.219h-10.5q-0.312 0-0.531-0.219t-0.219-0.531v-12.5q0-0.312 0.219-0.531t0.531-0.219h7q0.312 0 0.688 0.156t0.594 0.375zM8 1.062v2.937h2.937q-0.078-0.227-0.172-0.32l-2.445-2.445q-0.094-0.094-0.32-0.172zM11 13v-8h-3.25q-0.312 0-0.531-0.219t-0.219-0.531v-3.25h-6v12h10zM3.25 11.172v0.828h2.555v-0.828h-0.727v-1.305h1.070q0.594 0 0.922-0.117 0.523-0.18 0.832-0.68t0.309-1.141q0-0.633-0.289-1.102t-0.781-0.68q-0.375-0.148-1.016-0.148h-2.875v0.836h0.719v4.336h-0.719zM6.008 8.984h-0.93v-2.094h0.937q0.406 0 0.648 0.141 0.438 0.258 0.438 0.898 0 0.695-0.484 0.937-0.242 0.117-0.609 0.117z"></path>
</svg>

<svg xmlns="http://www.w3.org/2000/svg" viewBox="0 0 12 14"><path d="M11.47 2.97q.218.218.374.593T12 4.25v9q0 .313-.22.532t-.53.22H.75q-.312 0-.53-.22t-.22-.53V.75Q0 .438.22.22T.75 0h7q.312 0 .688.157t.594.375zM8 1.06V4h2.937q-.078-.228-.172-.32L8.32 1.233Q8.226 1.14 8 1.062zM11 13V5H7.75q-.312 0-.53-.22T7 4.25V1H1v12h10zm-7.75-1.828V12h2.555v-.828h-.727V9.867h1.07q.594 0 .922-.117.523-.18.832-.68t.31-1.14q0-.634-.29-1.103t-.78-.68Q6.765 6 6.124 6H3.25v.835h.72v4.336h-.72zm2.758-2.188h-.93V6.89h.937q.406 0 .648.14.438.26.438.9 0 .694-.483.936-.242.117-.61.117z" /></svg>
